Newaita/devices/symbolic/network-wired-symbolic.svg

<svg height="16" viewBox="0 0 16 16" width="16" xmlns="http://www.w3.org/2000/svg"><path d="m2.644531 2.109375c-.730469 0-1.320312.589844-1.320312 1.324219v7.9375c0 .734375.589843 1.324218 1.320312 1.324218h.664063c0 .730469.589844 1.320313 1.320312 1.320313h6.617188c.734375 0 1.324218-.589844 1.324218-1.320313h.660157c.734375 0 1.324219-.589843 1.324219-1.324218v-7.9375c0-.734375-.589844-1.324219-1.324219-1.324219zm.664063 1.324219h1.320312v1.984375c0 .367187-.292968.660156-.660156.660156s-.660156-.292969-.660156-.660156zm2.644531 0h1.324219v1.984375c0 .367187-.296875.660156-.664063.660156-.363281 0-.660156-.292969-.660156-.660156zm2.648437 0h1.320313v1.984375c0 .367187-.292969.660156-.660156.660156-.367188 0-.660157-.292969-.660157-.660156zm2.644532 0h1.324218v1.984375c0 .367187-.296874.660156-.664062.660156s-.660156-.292969-.660156-.660156zm0 0" fill="#424242"/></svg>

<?xml version="1.0" encoding="UTF-8"?>
<svg xmlns="http://www.w3.org/2000/svg" xmlns:xlink="http://www.w3.org/1999/xlink" width="16px" height="16px" viewBox="0 0 16 16" version="1.1">
<g id="surface1">
<path style=" stroke:none;fill-rule:nonzero;fill:rgb(25.882354%,25.882354%,25.882354%);fill-opacity:1;" d="M 2.644531 2.109375 C 1.914062 2.109375 1.324219 2.699219 1.324219 3.433594 L 1.324219 11.371094 C 1.324219 12.105469 1.914062 12.695312 2.644531 12.695312 L 3.308594 12.695312 C 3.308594 13.425781 3.898438 14.015625 4.628906 14.015625 L 11.246094 14.015625 C 11.980469 14.015625 12.570312 13.425781 12.570312 12.695312 L 13.230469 12.695312 C 13.964844 12.695312 14.554688 12.105469 14.554688 11.371094 L 14.554688 3.433594 C 14.554688 2.699219 13.964844 2.109375 13.230469 2.109375 Z M 3.308594 3.433594 L 4.628906 3.433594 L 4.628906 5.417969 C 4.628906 5.785156 4.335938 6.078125 3.96875 6.078125 C 3.601562 6.078125 3.308594 5.785156 3.308594 5.417969 Z M 5.953125 3.433594 L 7.277344 3.433594 L 7.277344 5.417969 C 7.277344 5.785156 6.980469 6.078125 6.613281 6.078125 C 6.25 6.078125 5.953125 5.785156 5.953125 5.417969 Z M 8.601562 3.433594 L 9.921875 3.433594 L 9.921875 5.417969 C 9.921875 5.785156 9.628906 6.078125 9.261719 6.078125 C 8.894531 6.078125 8.601562 5.785156 8.601562 5.417969 Z M 11.246094 3.433594 L 12.570312 3.433594 L 12.570312 5.417969 C 12.570312 5.785156 12.273438 6.078125 11.90625 6.078125 C 11.539062 6.078125 11.246094 5.785156 11.246094 5.417969 Z M 11.246094 3.433594 "/>
</g>
</svg>
